X:1
T:Prescott (Lutkin), CM
T:Peter Christian Lutkin (1858-1931)
T:Prescott (Lutkin), CM
T:Public Domain
C:Peter Christian Lutkin (1858-1931)
Z:Public Domain
%%score ( 1 2 ) 3
L:1/8
M:4/4
K:F
V:1 treble 
V:2 treble 
V:3 bass 
V:1
 [FA]2 [FG][FA] [FB]2 [FA]2 | [DA]3 [DG] [DG]2 [=B,D]2 | [CG]2 [CE]2 [B,D]2 C2 | [CA]8 | %4
 [DA]2 [DG][DA] [DB]2 [^FA]2 | [^FA]3 [DG] [DG]2 D2 | [CF]2 [CE]2 [B,D]2 [B,E]2 | [A,F]8 |] %8
V:2
 x8 | x8 | x6 C2 | x8 | x8 | x6 D2 | x8 | x8 |] %8
V:3
 [F,C]2 [F,B,][F,C] [F,D]2 [F,C]2 | [F,=B,]3 [F,B,] [F,B,]2 [F,G,]2 | %2
 [E,G,]2 [C,G,]2 [D,F,]2 [E,G,]2 | [F,A,]8 | [^F,C]2 [E,C][F,C] [G,B,]2 [A,C]2 | %5
 [A,C]3 [B,D] [B,D]2 [B,,B,]2 | [C,A,]2 [C,G,]2 [C,F,]2 [C,G,]2 | [F,,F,]8 |] %8

